noteapp/public/background.svg

<svg xmlns="http://www.w3.org/2000/svg" width="1920" height="1080" preserveAspectRatio="none"><g fill="none" mask="url(&quot;#a&quot;)"><path fill="rgba(209, 199, 191, 0.52)" d="M0 0h1920v1080H0z"/><path fill="rgba(151, 128, 110, 0.52)" d="M0 721.672c130.895-22.223 218.02-137.503 324.186-217.228 97.47-73.195 208.543-128.331 273.408-231.532 70.494-112.157 111.093-241.851 107.359-374.269-4.009-142.171-45.416-282.616-129.125-397.601-88.023-120.911-206.576-228.415-352.009-263.299-142.909-34.278-282.384 41.654-425.054 76.913-150.011 37.074-340.395 12.01-433.566 135.286-93.748 124.04-22.645 301.549-13.917 456.786 7.011 124.692 19.775 243.901 59.961 362.148 44.234 130.157 76.195 275.323 185.164 359.128C-291.855 713.939-138.973 745.266 0 721.672"/><path fill="rgba(255, 255, 255, 0.52)" d="M1920 1833.277c142.843 6.09 290.327-39.658 398.633-132.992 102.758-88.553 142.634-227.089 172.705-359.364 25.748-113.262 10.805-227.542-13.458-341.132-22.826-106.865-57.343-209.285-122.802-296.786-69.051-92.303-148.604-190.185-260.917-216.142-110.883-25.627-212 64.231-324.59 80.824-138.064 20.347-310.031-70.785-409.275 27.328-97.21 96.101-35.885 264.875-24.051 401.056 9.511 109.453 53.656 206.259 85.949 311.271 37.949 123.405 31.684 266.095 120.435 359.861 96.427 101.876 237.224 160.101 377.371 166.076"/></g><defs><mask id="a"><path fill="#fff" d="M0 0h1920v1080H0z"/></mask></defs></svg>

<svg xmlns="http://www.w3.org/2000/svg" version="1.1" xmlns:xlink="http://www.w3.org/1999/xlink" xmlns:svgjs="http://svgjs.dev/svgjs" width="1920" height="1080" preserveAspectRatio="none" viewBox="0 0 1920 1080">
    <g mask="url(&quot;#SvgjsMask1027&quot;)" fill="none">
        <rect width="1920" height="1080" x="0" y="0" fill="rgba(209, 199, 191, 0.52)"></rect>
        <path d="M0,721.672C130.895,699.449,218.02,584.169,324.186,504.444C421.656,431.249,532.729,376.113,597.594,272.912C668.088,160.755,708.687,31.061,704.953,-101.357C700.944,-243.528,659.537,-383.973,575.828,-498.958C487.805,-619.869,369.252,-727.373,223.819,-762.257C80.91,-796.535,-58.565,-720.603,-201.235,-685.344C-351.246,-648.27,-541.63,-673.334,-634.801,-550.058C-728.549,-426.018,-657.446,-248.509,-648.718,-93.272C-641.707,31.42,-628.943,150.629,-588.757,268.876C-544.523,399.033,-512.562,544.199,-403.593,628.004C-291.855,713.939,-138.973,745.266,0,721.672" fill="rgba(151, 128, 110, 0.52)"></path>
        <path d="M1920 1833.277C2062.843 1839.367 2210.327 1793.6190000000001 2318.633 1700.2849999999999 2421.391 1611.732 2461.267 1473.196 2491.3379999999997 1340.921 2517.0860000000002 1227.659 2502.143 1113.379 2477.88 999.789 2455.054 892.924 2420.537 790.504 2355.078 703.0029999999999 2286.027 610.7 2206.474 512.818 2094.161 486.861 1983.278 461.23400000000004 1882.161 551.092 1769.571 567.685 1631.507 588.0319999999999 1459.54 496.9 1360.296 595.0129999999999 1263.086 691.114 1324.411 859.888 1336.245 996.069 1345.7559999999999 1105.522 1389.9009999999998 1202.328 1422.194 1307.34 1460.143 1430.745 1453.878 1573.435 1542.629 1667.201 1639.056 1769.077 1779.853 1827.3020000000001 1920 1833.277" fill="rgba(255, 255, 255, 0.52)"></path>
    </g>
    <defs>
        <mask id="SvgjsMask1027">
            <rect width="1920" height="1080" fill="#ffffff"></rect>
        </mask>
    </defs>
</svg>
